packages/icons/src/components/Logo/assets/light/tableau.svg

<svg width="20" height="20" viewBox="0 0 20 20" fill="none" xmlns="http://www.w3.org/2000/svg">
<g clip-path="url(#clip0_110_655540)">
<path d="M9.74562 2.88083V3.60836H8.44434V4.08156H9.74562V5.53071H10.2543V4.08156H11.5881V3.60836H10.2543V2.15625H9.74562V2.88083Z" fill="#7099A6"/>
<path d="M5.4928 4.72622V5.78204H3.52313V6.44451H5.4928V8.58867H6.22329V6.44451H8.22254V5.78204H6.22329V3.67041H5.4928V4.72622Z" fill="#EB912C"/>
<path d="M13.747 4.72622V5.78204H11.7773V6.47704H13.747V8.58867H14.5071V6.47704H16.4767V5.78204H14.5071V3.67041H13.747V4.72622Z" fill="#59879B"/>
<path d="M9.55641 8.32263V9.50562H7.36493V10.3869H9.55641V12.7529H10.4436V10.3869H12.6351V9.50562H10.4436V7.13965H9.55641V8.32263Z" fill="#E8762C"/>
<path d="M16.0006 8.92003V9.66235H14.6668V10.2627H16.0006V11.7444H16.6661V10.2627H17.9999V9.66235H16.6661V8.18066H16.0006V8.92003Z" fill="#5B6591"/>
<path d="M3.30128 8.98518V9.69497H2V10.1977H3.30128V11.6173H3.80997V10.1977L5.14378 10.1504V9.69497H3.80997V8.27539H3.30128V8.98518Z" fill="#7099A6"/>
<path d="M5.4928 12.3268V13.3826H3.52313V14.0776H5.4928V16.1893H6.25287V14.0776H8.22254V13.3826H6.25287V11.271H5.4928V12.3268Z" fill="#C72035"/>
<path d="M13.747 12.3268V13.3826H11.7773V14.0451H13.747V16.1893H14.5071V14.0451H16.4767V13.3826H14.5071V11.271H13.747V12.3268Z" fill="#1F447E"/>
<path d="M9.68342 15.0094V15.7488H8.34961V16.3491H9.68342V17.8308H10.3489V16.3491H11.6827V15.7488H10.3489V14.2671H9.68342V15.0094Z" fill="#5B6591"/>
</g>
</svg>

<svg xmlns="http://www.w3.org/2000/svg" width="20" height="20" fill="none" viewBox="0 0 20 20">
    <g clip-path="url(#clip0_110_655540)">
        <path fill="#7099a6" d="M9.746 2.88v.728H8.444v.474h1.302V5.53h.508V4.08h1.334v-.473h-1.334V2.156h-.508z"/>
        <path fill="#eb912c" d="M5.493 4.726v1.056h-1.97v.663h1.97v2.144h.73V6.445h2v-.663h-2V3.67h-.73z"/>
        <path fill="#59879b" d="M13.747 4.726v1.056h-1.97v.695h1.97v2.112h.76V6.477h1.97v-.695h-1.97V3.67h-.76z"/>
        <path fill="#e8762c" d="M9.556 8.323v1.183H7.365v.88h2.191v2.367h.888v-2.366h2.191v-.881h-2.191V7.14h-.888z"/>
        <path fill="#5b6591" d="M16 8.92v.742h-1.333v.6H16v1.482h.665v-1.481H18v-.6h-1.334V8.18h-.665z"/>
        <path fill="#7099a6" d="M3.301 8.985v.71H2v.503h1.301v1.42h.509v-1.42l1.334-.048v-.455H3.81v-1.42h-.509z"/>
        <path fill="#c72035" d="M5.493 12.327v1.056h-1.97v.695h1.97v2.111h.76v-2.111h1.97v-.695h-1.97V11.27h-.76z"/>
        <path fill="#1f447e" d="M13.747 12.327v1.056h-1.97v.662h1.97v2.144h.76v-2.144h1.97v-.662h-1.97V11.27h-.76z"/>
        <path fill="#5b6591" d="M9.683 15.01v.739H8.35v.6h1.333v1.482h.666v-1.482h1.334v-.6h-1.334v-1.482h-.666z"/>
    </g>
</svg>
